packages/kaspersky-hexa-ui-icons/src/iconsSVGs/24/ClusterK8S.svg

<svg width="24" height="24" viewBox="0 0 24 24" fill="none" xmlns="http://www.w3.org/2000/svg">
<path fill-rule="evenodd" clip-rule="evenodd" d="M11.9999 0.400391C12.5522 0.400391 12.9999 0.848106 12.9999 1.40039V3.05493C15.0862 3.28557 16.9577 4.22936 18.365 5.63715L19.688 4.5821C20.1197 4.23775 20.7489 4.30865 21.0933 4.74044C21.4376 5.17223 21.3667 5.80142 20.9349 6.14576L19.6139 7.19923C20.4918 8.58863 20.9999 10.235 20.9999 12C20.9999 12.3407 20.981 12.677 20.9441 13.0079L22.6064 13.3873C23.1448 13.5102 23.4817 14.0463 23.3588 14.5848C23.2359 15.1232 22.6998 15.4601 22.1613 15.3372L20.5023 14.9585C19.8256 16.9037 18.5001 18.5451 16.785 19.6239L17.4971 21.1025C17.7367 21.6001 17.5276 22.1977 17.03 22.4373C16.5324 22.677 15.9348 22.4678 15.6952 21.9702L14.984 20.4935C14.0501 20.8216 13.0459 21 11.9999 21C10.9539 21 9.94963 20.8216 9.01579 20.4935L8.30462 21.9702C8.06499 22.4678 7.46736 22.677 6.96976 22.4373C6.47217 22.1977 6.26305 21.6001 6.50268 21.1025L7.21473 19.6239C5.49965 18.5451 4.17422 16.9037 3.49746 14.9585L1.83846 15.3372C1.30003 15.4601 0.763909 15.1232 0.641014 14.5848C0.518119 14.0463 0.854983 13.5102 1.39342 13.3873L3.0557 13.0079C3.01883 12.677 2.99989 12.3407 2.99989 12C2.99989 10.235 3.50797 8.58864 4.38585 7.19923L3.06484 6.14576C2.63305 5.80142 2.56216 5.17223 2.9065 4.74044C3.25084 4.30865 3.88003 4.23775 4.31182 4.5821L5.63482 5.63715C7.04212 4.22937 8.91353 3.28557 10.9999 3.05493V1.40039C10.9999 0.848106 11.4476 0.400391 11.9999 0.400391ZM10.9999 8.12602V5.07089C9.54462 5.27905 8.23374 5.93482 7.21118 6.89426L9.60023 8.79946C10.0123 8.48999 10.4861 8.25825 10.9999 8.12602ZM12.9999 8.12602C13.5136 8.25825 13.9875 8.48999 14.3996 8.79946L16.7886 6.89426C15.766 5.93482 14.4552 5.27905 12.9999 5.07089V8.12602ZM15.6496 10.3607C15.8591 10.8263 15.9821 11.3392 15.9981 11.879L18.9779 12.5591C18.9925 12.3747 18.9999 12.1882 18.9999 12C18.9999 10.7068 18.6492 9.49559 18.0378 8.45613L15.6496 10.3607ZM15.5577 13.8299C15.3157 14.2995 14.9835 14.7149 14.584 15.0534L15.9101 17.8069C17.0922 17.0094 18.0176 15.8604 18.5365 14.5098L15.5577 13.8299ZM12.7831 15.9234C12.5298 15.9736 12.2679 16 11.9999 16C11.7318 16 11.4699 15.9736 11.2166 15.9234L9.89073 18.6767C10.5563 18.8867 11.2649 19 11.9999 19C12.7349 19 13.4435 18.8867 14.109 18.6767L12.7831 15.9234ZM9.41578 15.0534C9.01627 14.7149 8.68406 14.2995 8.44208 13.8299L5.46329 14.5098C5.98219 15.8604 6.90762 17.0094 8.08973 17.8069L9.41578 15.0534ZM8.00169 11.879C8.01772 11.3392 8.1407 10.8263 8.35017 10.3607L5.96196 8.45613C5.35055 9.49559 4.99989 10.7068 4.99989 12C4.99989 12.1882 5.00732 12.3747 5.0219 12.5591L8.00169 11.879ZM13.9999 12C13.9999 13.1046 13.1045 14 11.9999 14C10.8953 14 9.99989 13.1046 9.99989 12C9.99989 10.8954 10.8953 10 11.9999 10C13.1045 10 13.9999 10.8954 13.9999 12Z" fill="black"/>
</svg>

<svg xmlns="http://www.w3.org/2000/svg" width="24" height="24" fill="none" viewBox="0 0 24 24"><path fill="#000" fill-rule="evenodd" d="M12 .4004c.5523 0 1 .4477 1 1v1.6545c2.0864.2307 3.9578 1.1745 5.3651 2.5823l1.323-1.0551c.4318-.3443 1.061-.2734 1.4053.1583.3443.4318.2734 1.061-.1583 1.4054L19.614 7.1992C20.4919 8.5886 21 10.235 21 12c0 .3407-.0189.677-.0558 1.0079l1.6623.3794c.5384.1229.8753.659.7524 1.1975s-.659.8753-1.1975.7524l-1.659-.3787c-.6767 1.9452-2.0022 3.5866-3.7172 4.6654l.712 1.4786c.2396.4976.0305 1.0952-.4671 1.3348s-1.0952.0305-1.3348-.4671l-.7112-1.4767C14.0503 20.8216 13.046 21 12 21s-2.0502-.1784-2.984-.5065l-.7113 1.4767c-.2396.4976-.8372.7068-1.3348.4671s-.7067-.8372-.4671-1.3348l.712-1.4786c-1.715-1.0788-3.0405-2.7202-3.7172-4.6654l-1.659.3787C1.3 15.4601.764 15.1232.641 14.5848s.214-1.0746.7524-1.1975l1.6623-.3794A9.1 9.1 0 0 1 3 12c0-1.765.508-3.4114 1.386-4.8008L3.065 6.1458c-.4318-.3444-.5027-.9736-.1584-1.4054s.9736-.5026 1.4053-.1583l1.323 1.055C7.0422 4.2295 8.9137 3.2857 11 3.055V1.4004c0-.5523.4477-1 1-1M11 8.126V5.071c-1.4553.2081-2.7661.864-3.7887 1.8234l2.389 1.9052A3.98 3.98 0 0 1 11 8.126m2 0a3.98 3.98 0 0 1 1.3997.6735l2.389-1.9052C15.7662 5.9348 14.4553 5.279 13 5.0709zm2.6497 2.2347c.2095.4656.3325.9785.3485 1.5183l2.9798.6801A7 7 0 0 0 19 12c0-1.2932-.3506-2.5044-.9621-3.5439zm-.0919 3.4692a4.02 4.02 0 0 1-.9737 1.2235l1.3261 2.7535c1.1821-.7975 2.1075-1.9465 2.6264-3.2971zm-2.7746 2.0935A4 4 0 0 1 12 16c-.268 0-.5299-.0264-.7832-.0766l-1.326 2.7533A7 7 0 0 0 12 19a7 7 0 0 0 2.1092-.3233zm-3.3673-.87a4.02 4.02 0 0 1-.9737-1.2235l-2.9788.6799c.519 1.3506 1.4443 2.4996 2.6265 3.2971zm-1.414-3.1744a3.98 3.98 0 0 1 .3484-1.5183L5.962 8.4561C5.3507 9.4956 5 10.7068 5 12q0 .2824.022.5591zM14 12c0 1.1046-.8954 2-2 2s-2-.8954-2-2 .8954-2 2-2 2 .8954 2 2"/></svg>
